packages/core/assets/Icons/arrow_circle_left_outlined.svg

<svg viewBox="0 0 20 20" fill="none" xmlns="http://www.w3.org/2000/svg">
<path d="M9.83329 10.8334H12.5C12.7361 10.8334 12.934 10.7535 13.0937 10.5938C13.2534 10.434 13.3333 10.2361 13.3333 10C13.3333 9.76391 13.2534 9.56599 13.0937 9.40627C12.934 9.24655 12.7361 9.16669 12.5 9.16669H9.83329L10.5833 8.41669C10.7361 8.26391 10.8125 8.06946 10.8125 7.83335C10.8125 7.59724 10.7361 7.4028 10.5833 7.25002C10.4305 7.09724 10.2361 7.02085 9.99996 7.02085C9.76385 7.02085 9.5694 7.09724 9.41663 7.25002L7.24996 9.41669C7.08329 9.58335 6.99996 9.7778 6.99996 10C6.99996 10.2222 7.08329 10.4167 7.24996 10.5834L9.41663 12.75C9.5694 12.9028 9.76385 12.9792 9.99996 12.9792C10.2361 12.9792 10.4305 12.9028 10.5833 12.75C10.7361 12.5972 10.8125 12.4028 10.8125 12.1667C10.8125 11.9306 10.7361 11.7361 10.5833 11.5834L9.83329 10.8334ZM9.99996 18.3334C8.84718 18.3334 7.76385 18.1146 6.74996 17.6771C5.73607 17.2396 4.85413 16.6459 4.10413 15.8959C3.35413 15.1459 2.76038 14.2639 2.32288 13.25C1.88538 12.2361 1.66663 11.1528 1.66663 10C1.66663 8.84724 1.88538 7.76391 2.32288 6.75002C2.76038 5.73613 3.35413 4.85419 4.10413 4.10419C4.85413 3.35419 5.73607 2.76044 6.74996 2.32294C7.76385 1.88544 8.84718 1.66669 9.99996 1.66669C11.1527 1.66669 12.2361 1.88544 13.25 2.32294C14.2638 2.76044 15.1458 3.35419 15.8958 4.10419C16.6458 4.85419 17.2395 5.73613 17.677 6.75002C18.1145 7.76391 18.3333 8.84724 18.3333 10C18.3333 11.1528 18.1145 12.2361 17.677 13.25C17.2395 14.2639 16.6458 15.1459 15.8958 15.8959C15.1458 16.6459 14.2638 17.2396 13.25 17.6771C12.2361 18.1146 11.1527 18.3334 9.99996 18.3334ZM9.99996 16.6667C11.8611 16.6667 13.4375 16.0209 14.7291 14.7292C16.0208 13.4375 16.6666 11.8611 16.6666 10C16.6666 8.13891 16.0208 6.56252 14.7291 5.27085C13.4375 3.97919 11.8611 3.33335 9.99996 3.33335C8.13885 3.33335 6.56246 3.97919 5.27079 5.27085C3.97913 6.56252 3.33329 8.13891 3.33329 10C3.33329 11.8611 3.97913 13.4375 5.27079 14.7292C6.56246 16.0209 8.13885 16.6667 9.99996 16.6667Z" fill="currentColor"/>
</svg>

<svg xmlns="http://www.w3.org/2000/svg" width="20" height="20" fill="none" viewBox="0 0 20 20">
  <path fill="#201F1F" d="M9.833 10.833H12.5c.236 0 .434-.08.594-.24a.803.803 0 0 0 .24-.593.806.806 0 0 0-.24-.594.806.806 0 0 0-.594-.24H9.833l.75-.75a.79.79 0 0 0 .23-.583.79.79 0 0 0-.23-.583.79.79 0 0 0-.583-.23.79.79 0 0 0-.583.23L7.25 9.417A.8.8 0 0 0 7 10a.8.8 0 0 0 .25.583l2.167 2.167a.79.79 0 0 0 .583.23.79.79 0 0 0 .583-.23.79.79 0 0 0 .23-.583.79.79 0 0 0-.23-.584l-.75-.75Zm.167 7.5a8.115 8.115 0 0 1-3.25-.656 8.415 8.415 0 0 1-2.646-1.781 8.416 8.416 0 0 1-1.781-2.646A8.115 8.115 0 0 1 1.667 10c0-1.153.218-2.236.656-3.25a8.415 8.415 0 0 1 1.781-2.646A8.415 8.415 0 0 1 6.75 2.323 8.115 8.115 0 0 1 10 1.667c1.153 0 2.236.218 3.25.656a8.416 8.416 0 0 1 2.646 1.781 8.415 8.415 0 0 1 1.781 2.646 8.115 8.115 0 0 1 .656 3.25 8.115 8.115 0 0 1-.656 3.25 8.416 8.416 0 0 1-1.781 2.646 8.416 8.416 0 0 1-2.646 1.781 8.115 8.115 0 0 1-3.25.656Zm0-1.666c1.861 0 3.438-.646 4.73-1.938 1.29-1.291 1.937-2.868 1.937-4.729 0-1.861-.646-3.437-1.938-4.73C13.438 3.98 11.861 3.334 10 3.334c-1.861 0-3.438.646-4.73 1.938C3.98 6.563 3.334 8.139 3.334 10c0 1.861.646 3.438 1.938 4.73 1.291 1.29 2.868 1.937 4.729 1.937Z"/>
</svg>
